!!!COM: Music21
!!!OTL: O pano
!!!OMV: pezas_muineiras_o-pano_o-pano-partitura.musicxml
**kern
*part1
*staff1
*I"Bagpipes
*I'Bag
*clefG^2
*k[]
*M6/8
=1
!LO:TX:a:t=Presto
*MM180
!LO:TX:a:t=[quarter]=180
2r
8r
16eeLL
16ffJJ
=||
2gg
8aaL
8bbJ
=
2cccM
8bbL
8aaJ
=
8bbL
8ccc
8bbJ
8aaL
8bb
8aaJ
=
16ggMLL
16eeJJ
[4cc
4cc]
16eeLL
16ffJJ
=
2gg
8aaL
8bbJ
=
2cccM
8bbL
8aaJ
=
8bbL
8aa
8ggJ
8ffL
8ee
8ddJ
!!linebreak:original
=
[4.ccM
4cc]
16eeLL
16ffJJ
=||
2gg
8aaL
8bbJ
=
2cccM
8bbL
8aaJ
=
8bbL
8ccc
8bbJ
8aaL
8bb
8aaJ
=
16ggMLL
16eeJJ
[4cc
4cc]
16eeLL
16ffJJ
=
2gg
8aaL
8bbJ
=
2cccM
8bbL
8aaJ
!!linebreak:original
=
8bbL
8aa
8ggJ
8ffL
8ee
8ddJ
=||
2ccM
8eeL
8ffJ
=||
8ggL
8aa
8ggJ
8gg^ML
8aa
8bbJ
=
8cccL
8bb
8aaJ
8bbL
8aa
8ggJ
=
8aaL
8bb
8aaJ
8ffL
8gg
8aaJ
=
8gg^ML
8ee
[8ccJ
8ccL]
8ee
8ffJ
=
8ggL
8aa
8ggJ
8gg^ML
8aa
8bbJ
!!linebreak:original
=
8cccL
8bb
8aaJ
8bbL
8aa
8ggJ
=
8bbL
8aa
8ggJ
8ffL
8ee
8ddJ
=
2ccM
8eeL
8ffJ
=||
8ggL
8aa
8ggJ
8gg^ML
8aa
8bbJ
=
8cccL
8bb
8aaJ
8bbL
8aa
8ggJ
=
8aaL
8bb
8aaJ
8ffL
8gg
8aaJ
=
8gg^ML
8ee
[8ccJ
8ccL]
8ee
8ffJ
!!linebreak:original
=
8ggL
8aa
8ggJ
8gg^ML
8aa
8bbJ
!!linebreak:original
=
8cccL
8bb
8aaJ
8bbL
8aa
8ggJ
=
8bbL
8aa
8ggJ
8ffL
8ee
8ddJ
=
[4.ccM
4cc]
16eeLL
16ffJJ
=||
8cc
4r
4.r
==
*-
!!!system-decoration: s1,s2
